icons/desktop-download-24.svg

<svg width="24" height="24" viewBox="0 0 24 24" fill="none" xmlns="http://www.w3.org/2000/svg">
<path d="M11.2499 9.33151V0.749994C11.2499 0.335783 11.5857 0 11.9999 0C12.4141 0 12.7499 0.335784 12.7499 0.749994V9.3315L14.6988 7.22023C14.9797 6.91586 15.4542 6.89688 15.7586 7.17784C16.0629 7.45879 16.0819 7.93328 15.801 8.23764L12.551 11.7584C12.409 11.9122 12.2092 11.9997 11.9999 11.9997C11.7906 11.9997 11.5908 11.9122 11.4488 11.7584L8.19883 8.23764C7.91788 7.93328 7.93686 7.45879 8.24122 7.17784C8.54558 6.89689 9.02008 6.91586 9.30103 7.22023L11.2499 9.33151Z" fill="#24292E"/>
<path fill-rule="evenodd" clip-rule="evenodd" d="M2.49998 3.75014C2.49998 3.61207 2.61191 3.50014 2.74998 3.50014H8.24994C8.66415 3.50014 8.99993 3.16436 8.99993 2.75015C8.99993 2.33594 8.66415 2.00015 8.24994 2.00015H2.74998C1.78349 2.00015 0.999992 2.78365 0.999992 3.75014V15.2501C0.999992 16.2165 1.78349 17 2.74998 17H8.95345C8.78275 18.3751 8.14885 19.6522 7.18477 20.7569C6.99138 20.9784 6.94536 21.2926 7.06706 21.5604C7.18876 21.8281 7.45573 22 7.74983 22H16.2498C16.5439 22 16.8108 21.8281 16.9325 21.5604C17.0542 21.2926 17.0082 20.9784 16.8148 20.7569C15.8507 19.6522 15.2168 18.3751 15.0461 17H21.2498C22.2163 17 22.9998 16.2165 22.9998 15.2501V3.75014C22.9998 2.78365 22.2163 2.00015 21.2498 2.00015H15.7499C15.3357 2.00015 14.9999 2.33594 14.9999 2.75015C14.9999 3.16436 15.3357 3.50014 15.7499 3.50014H21.2498C21.3879 3.50014 21.4998 3.61207 21.4998 3.75014V15.2501C21.4998 15.3881 21.3879 15.5 21.2498 15.5H2.74998C2.61191 15.5 2.49998 15.3881 2.49998 15.2501V3.75014ZM10.4628 17C10.3373 18.2662 9.89877 19.445 9.23964 20.5H14.76C14.1008 19.445 13.6623 18.2662 13.5368 17H10.4628Z" fill="#24292E"/>
</svg>

<svg xmlns="http://www.w3.org/2000/svg" width="24" height="24" viewBox="0 0 24 24"><path d="M11.25 9.331V.75a.75.75 0 011.5 0v8.58l1.949-2.11A.75.75 0 1115.8 8.237l-3.25 3.52a.75.75 0 01-1.102 0l-3.25-3.52A.75.75 0 119.3 7.22l1.949 2.111z"/><path fill-rule="evenodd" d="M2.5 3.75a.25.25 0 01.25-.25h5.5a.75.75 0 100-1.5h-5.5A1.75 1.75 0 001 3.75v11.5c0 .966.784 1.75 1.75 1.75h6.204c-.171 1.375-.805 2.652-1.77 3.757A.75.75 0 007.75 22h8.5a.75.75 0 00.565-1.243c-.964-1.105-1.598-2.382-1.769-3.757h6.204A1.75 1.75 0 0023 15.25V3.75A1.75 1.75 0 0021.25 2h-5.5a.75.75 0 000 1.5h5.5a.25.25 0 01.25.25v11.5a.25.25 0 01-.25.25H2.75a.25.25 0 01-.25-.25V3.75zM10.463 17c-.126 1.266-.564 2.445-1.223 3.5h5.52c-.66-1.055-1.098-2.234-1.223-3.5h-3.074z"/></svg>
